src/scalable/places-normal/purple-folder-git.svg

<?xml version="1.0" encoding="UTF-8" standalone="no"?>
<svg
   width="64"
   height="64"
   version="1.1"
   viewBox="0 0 16.933 16.933"
   id="svg23"
   sodipodi:docname="purple-folder-git.svg"
   inkscape:version="1.1.1 (3bf5ae0d25, 2021-09-20)"
   xmlns:inkscape="http://www.inkscape.org/namespaces/inkscape"
   xmlns:sodipodi="http://sodipodi.sourceforge.net/DTD/sodipodi-0.dtd"
   xmlns="http://www.w3.org/2000/svg"
   xmlns:svg="http://www.w3.org/2000/svg"
   xmlns:rdf="http://www.w3.org/1999/02/22-rdf-syntax-ns#"
   xmlns:cc="http://creativecommons.org/ns#"
   xmlns:dc="http://purl.org/dc/elements/1.1/">
  <sodipodi:namedview
     id="namedview25"
     pagecolor="#505050"
     bordercolor="#ffffff"
     borderopacity="1"
     inkscape:pageshadow="0"
     inkscape:pageopacity="0"
     inkscape:pagecheckerboard="1"
     showgrid="false"
     inkscape:zoom="11.1875"
     inkscape:cx="31.955307"
     inkscape:cy="32"
     inkscape:window-width="1920"
     inkscape:window-height="1000"
     inkscape:window-x="0"
     inkscape:window-y="44"
     inkscape:window-maximized="1"
     inkscape:current-layer="svg23" />
  <metadata
     id="metadata2">
    <rdf:RDF>
      <cc:Work
         rdf:about="">
        <dc:format>image/svg+xml</dc:format>
        <dc:type
           rdf:resource="http://purl.org/dc/dcmitype/StillImage" />
      </cc:Work>
    </rdf:RDF>
  </metadata>
  <defs
     id="defs9">
    <linearGradient
       id="linearGradient892"
       x1="-197.72"
       x2="-197.72"
       y1="263.86"
       y2="273.76"
       gradientTransform="rotate(-45 -337.55 -145.8)"
       gradientUnits="userSpaceOnUse">
      <stop
         offset="0"
         id="stop4" />
      <stop
         stop-opacity="0"
         offset="1"
         id="stop6" />
    </linearGradient>
  </defs>
  <path
     transform="scale(.26458)"
     d="m27.002 8.9844-14 0.0039062c-1.1097 0-1.4927 1.0128-2.002 1.998v0.013672h-1c-2.216 0-4 1.784-4 4v28c0 2.216 1.784 4 4 4h44c2.216 0 4-1.784 4-4v-28c0-2.216-1.784-4-4-4h-16.859c-0.047294-0.003154-0.092488-0.013872-0.14062-0.013672h-7.9961c-0.58584-0.94112-0.89075-2.002-2.002-2.002z"
     fill="#7e57c2"
     stroke-linecap="round"
     stroke-linejoin="round"
     stroke-width="1.8619"
     style="paint-order:stroke fill markers"
     id="path11" />
  <path
     transform="scale(.26458)"
     d="m27.002 8.9844-14 0.00391c-1.1097 0-1.4927 1.0128-2.002 1.998v0.013668h-1c-2.216 0-4 1.784-4 4v28c0 2.216 1.784 4 4 4h44c2.216 0 4-1.784 4-4v-28c0-2.216-1.784-4-4-4l-24.996-0.013672c-0.58584-0.94112-0.89075-2.002-2.002-2.002z"
     opacity=".18"
     stroke-linecap="round"
     stroke-linejoin="round"
     stroke-width="1.8619"
     style="paint-order:stroke fill markers"
     id="path13" />
  <rect
     x="2.381"
     y="3.7"
     width="12.171"
     height="5.027"
     ry=".53326"
     fill="#fff"
     paint-order="markers stroke fill"
     id="rect15" />
  <rect
     x="3.704"
     y="2.64"
     width="3.175"
     height=".529"
     ry=".265"
     opacity=".25"
     paint-order="stroke markers fill"
     id="rect17" />
  <path
     transform="scale(.26458)"
     d="m34 16-3 4h-25c-2.216 0-4 1.784-4 4v28c0 2.216 1.784 4 4 4h52c2.216 0 4-1.784 4-4v-32c0-2.216-1.784-4-4-4z"
     fill="#7e57c2"
     stroke-linecap="round"
     stroke-linejoin="round"
     stroke-width="2"
     style="paint-order:stroke fill markers"
     id="path19" />
  <path
     transform="scale(.26458)"
     d="m62 40-16 16h12c2.216 0 4-1.784 4-4v-12z"
     fill="url(#linearGradient892)"
     opacity=".2"
     stroke-linecap="round"
     stroke-linejoin="round"
     stroke-width="2"
     style="paint-order:stroke fill markers"
     id="path21" />
  <path
     d="M 11.197358,9.9345536 8.7191455,7.4915128 c -0.1426556,-0.1407331 -0.3741316,-0.1407331 -0.5169777,0 L 7.6876057,7.9988836 8.3403565,8.6424204 C 8.4920856,8.5919147 8.6660592,8.6258134 8.7869457,8.7450135 8.9085605,8.8649562 8.942628,9.0379413 8.8900973,9.18804 L 9.519276,9.808241 c 0.1522544,-0.051735 0.3277954,-0.018292 0.4494108,0.1017654 0.1698712,0.1674186 0.1698712,0.4388186 0,0.6063776 -0.1699937,0.167563 -0.445235,0.167563 -0.6153036,0 -0.1277617,-0.126076 -0.159371,-0.311167 -0.094585,-0.466363 L 8.6719703,9.4715469 v 1.5222391 c 0.041384,0.02021 0.08047,0.04714 0.1149754,0.08107 0.169871,0.167449 0.169871,0.438819 0,0.606524 -0.1698718,0.167394 -0.4453107,0.167394 -0.6150578,0 -0.1698718,-0.167705 -0.1698718,-0.439075 0,-0.606524 0.041989,-0.04134 0.090606,-0.07262 0.1424819,-0.09356 V 9.4449801 C 8.262498,9.4240457 8.2139908,9.3930261 8.1718879,9.3513997 8.0432304,9.2246053 8.0122703,9.0384188 8.0782667,8.8826315 L 7.4347318,8.2481135 5.7354149,9.9232359 c -0.1427259,0.1408491 -0.1427259,0.3690491 0,0.5097761 l 2.4783356,2.443046 c 0.1426796,0.140705 0.3740808,0.140705 0.5169768,0 l 2.4666307,-2.431725 c 0.142772,-0.140752 0.142772,-0.369067 0,-0.5097768"
     style="fill:#ffffff;fill-opacity:1;fill-rule:nonzero;stroke:none;stroke-width:0.00613326"
     id="path870" />
</svg>

<svg width="64" height="64" viewBox="0 0 16.933 16.933" xmlns="http://www.w3.org/2000/svg"><defs><linearGradient id="a" x1="-197.72" x2="-197.72" y1="263.86" y2="273.76" gradientTransform="rotate(-45 -337.55 -145.8)" gradientUnits="userSpaceOnUse"><stop offset="0"/><stop stop-opacity="0" offset="1"/></linearGradient></defs><path transform="scale(.26458)" d="m27.002 8.984-14 .004c-1.11 0-1.493 1.013-2.002 1.998V11h-1c-2.216 0-4 1.784-4 4v28c0 2.216 1.784 4 4 4h44c2.216 0 4-1.784 4-4V15c0-2.216-1.784-4-4-4H37.141c-.047-.003-.092-.014-.14-.014h-7.997c-.586-.94-.89-2.002-2.002-2.002z" fill="#7e57c2" style="paint-order:stroke fill markers"/><path transform="scale(.26458)" d="m27.002 8.984-14 .004c-1.11 0-1.493 1.013-2.002 1.998V11h-1c-2.216 0-4 1.784-4 4v28c0 2.216 1.784 4 4 4h44c2.216 0 4-1.784 4-4V15c0-2.216-1.784-4-4-4l-24.996-.014c-.586-.94-.89-2.002-2.002-2.002z" opacity=".18" style="paint-order:stroke fill markers"/><rect x="2.381" y="3.7" width="12.171" height="5.027" ry=".533" fill="#fff" paint-order="markers stroke fill"/><rect x="3.704" y="2.64" width="3.175" height=".529" ry=".265" opacity=".25" paint-order="stroke markers fill"/><path transform="scale(.26458)" d="m34 16-3 4H6c-2.216 0-4 1.784-4 4v28c0 2.216 1.784 4 4 4h52c2.216 0 4-1.784 4-4V20c0-2.216-1.784-4-4-4z" fill="#7e57c2" style="paint-order:stroke fill markers"/><path transform="scale(.26458)" d="M62 40 46 56h12c2.216 0 4-1.784 4-4V40z" fill="url(#a)" opacity=".2" style="paint-order:stroke fill markers"/><path d="M11.197 9.935 8.72 7.492a.37.37 0 0 0-.517 0l-.514.507.652.643a.438.438 0 0 1 .447.103c.122.12.156.293.103.443l.63.62a.439.439 0 0 1 .449.102c.17.167.17.439 0 .606a.44.44 0 0 1-.616 0 .424.424 0 0 1-.094-.466l-.587-.578v1.522a.425.425 0 0 1 .115.688.44.44 0 0 1-.615 0 .425.425 0 0 1 .142-.7V9.444a.424.424 0 0 1-.236-.562l-.643-.635-1.7 1.675a.357.357 0 0 0 0 .51l2.479 2.443a.37.37 0 0 0 .517 0l2.466-2.432a.357.357 0 0 0 0-.51" style="fill:#fff;fill-opacity:1;fill-rule:nonzero;stroke:none;stroke-width:.00613326"/></svg>
